copytrade/img/icomoon/home.svg

<svg width="24" height="24" viewBox="0 0 24 24" fill="none" xmlns="http://www.w3.org/2000/svg">
<path d="M21 17.8109V10.8663C21 9.88216 20.5726 8.95316 19.8418 8.34896L14.4558 3.89571C13.0113 2.70143 10.9887 2.70143 9.54424 3.89571L4.15818 8.34896C3.42742 8.95316 3 9.88216 3 10.8663V17.8109C3 19.5722 4.34315 21 6 21H8C8.55228 21 9 20.5523 9 20V16.7478C9 14.9865 10.3431 13.5587 12 13.5587C13.6569 13.5587 15 14.9865 15 16.7478V20C15 20.5523 15.4477 21 16 21H18C19.6569 21 21 19.5722 21 17.8109Z" fill="#0065FF"/>
</svg>

<svg width="24" height="24" fill="none" xmlns="http://www.w3.org/2000/svg"><path d="M21 17.81v-6.944c0-.984-.427-1.913-1.158-2.517l-5.386-4.453a3.814 3.814 0 00-4.912 0L4.158 8.349C3.428 8.953 3 9.882 3 10.866v6.945C3 19.572 4.343 21 6 21h2a1 1 0 001-1v-3.252c0-1.762 1.343-3.19 3-3.19s3 1.428 3 3.19V20a1 1 0 001 1h2c1.657 0 3-1.428 3-3.19z" fill="#0065FF"/></svg>
